assets/img/svg/cult-brands.svg

<svg width="74" height="75" viewBox="0 0 74 75" xmlns="http://www.w3.org/2000/svg"><title>Page 1</title><path d="M36.545 0v3.646m-9.507-2.319l.93 3.521m-9.775.254l1.799 3.157m-9.378 2.809l2.543 2.578m-8.34 5.174l3.115 1.823m-6.736 7.185l3.475.944M0 37.479h3.597m-2.288 9.635l3.474-.943m.251 9.907l3.115-1.823m2.771 9.505l2.544-2.578m5.105 8.454l1.798-3.158m7.09 6.827l.93-3.522m8.592 4.734v-3.645m9.507 2.318l-.931-3.52m9.775-.254l-1.798-3.158m9.378-2.808l-2.544-2.579m8.341-5.173l-3.116-1.823m6.736-7.185l-3.474-.944m4.671-8.707h-3.598m2.289-9.636l-3.475.944m-.25-9.907l-3.115 1.822m-2.772-9.504l-2.543 2.577m-5.105-8.453L53.156 8.04m-7.089-6.827l-.931 3.521m11.276 18.808c-2.372-2.526-5.53-3.917-8.894-3.918-3.365 0-6.525 1.391-8.896 3.918l-1.642 1.75-1.643-1.748c-2.371-2.527-5.53-3.918-8.896-3.918-3.364 0-6.523 1.39-8.894 3.917-4.797 5.108-4.82 13.217-.052 18.861 4.585 5.427 18.378 17.37 18.518 17.49.26.224.608.348.981.35.367 0 .677-.114.949-.35.137-.117 13.958-12.088 18.522-17.491 4.765-5.642 4.742-13.75-.053-18.861zm-3.329 2.548c1.916 1.847 2.732 4.003 2.732 6.923m-6.494-8.856a6.47 6.47 0 0 1 2.275.776M54.69 37.36a9.869 9.869 0 0 1-1.607 2.008" stroke="#F36F2D" stroke-width="2" fill="none"/></svg>

<svg width="74" height="75" viewBox="0 0 74 75" xmlns="http://www.w3.org/2000/svg"><title>Page 1</title><g stroke="#F36F2D" stroke-width="2" fill="none" fill-rule="evenodd"><path d="M36.545 0v3.646M27.038 1.327l.93 3.521M18.193 5.102l1.799 3.157M10.614 11.068l2.543 2.578M4.817 18.82l3.115 1.823M1.196 27.828l3.475.944M0 37.479h3.597M1.309 47.114l3.474-.943M5.034 56.078l3.115-1.823M10.92 63.76l2.544-2.578M18.569 69.636l1.798-3.158M27.457 73.305l.93-3.522M36.979 74.517v-3.645M46.486 73.19l-.931-3.52M55.33 69.416l-1.798-3.158M62.91 63.45l-2.544-2.579M68.707 55.698l-3.116-1.823M72.327 46.69l-3.474-.944M73.524 37.039h-3.598M72.215 27.403l-3.475.944M68.49 18.44l-3.115 1.822M62.603 10.758l-2.543 2.577M54.955 4.882L53.156 8.04M46.067 1.213l-.931 3.521M56.412 23.542c-2.372-2.526-5.53-3.917-8.894-3.918-3.365 0-6.525 1.391-8.896 3.918l-1.642 1.75-1.643-1.748c-2.371-2.527-5.53-3.918-8.896-3.918-3.364 0-6.523 1.39-8.894 3.917-4.797 5.108-4.82 13.217-.052 18.861 4.585 5.427 18.378 17.37 18.518 17.49.26.224.608.348.981.35.367 0 .677-.114.949-.35.137-.117 13.958-12.088 18.522-17.491 4.765-5.642 4.742-13.75-.053-18.861zM53.083 26.09c1.916 1.847 2.732 4.003 2.732 6.923M49.321 24.157a6.47 6.47 0 0 1 2.275.776M54.69 37.36a9.869 9.869 0 0 1-1.607 2.008"/></g></svg>
